X: 84
T: Owa czas, Panie, przyszedł pożądany;
C: Mikołaj Gomółka
%%abc-version 2.0
%%abcx-abcm2ps-target-version 5.9.1 (29 Sep 2008)
%%abc-creator hum2abc beta
%%abcx-conversion-date 2021/10/04 07:59:10
%%abc-edited-by Marta Lawrence
%%abcx-initial-encoding-date 2020-02-15
%%humdrum-veritas 3955321043
%%humdrum-veritas-data 4032107106
%%linebreak <none>
%%barnumbers 0
L: 1/4
M: C|
N: Derived from pl-wn--sd-xvi-qu-273--085_gomolka-mikolaj--owa-czas-panie-przyszedl-pozadany.krn
%%staves [1 2 3 4]
V: 1 clef=treble
V: 2
V: 3 clef=alto
V: 4
K: C
[V:1] d4d2cB [|] 
[V:2] G4G2E2 [|] 
[V:3] G,4B,2C2 [|] 
[V:4] G,4G,2A,2 [|] 
[V:1] A2d2g4 [|] 
[V:2] A2G2G4 [|] 
[V:3] D2D2E4 [|] 
[V:4] ^F,2G,2E,4 [|] 
[V:1] f2e2>d2d4 [|] 
[V:2] A2B4G2 [|] 
[V:3] F2G2>F2ED [|] 
[V:4] D,2G,4B,2 [|] 
[V:1] c2d4 :|]  
[V:2] A2>G2^F4 :|]  
[V:3] E4D4 :|]  
[V:4] A,4D,4 :|]  
[V:1] [M:3/1]d2d2e2c4d2 [I:setbarnb 6][|] 
[V:2] [M:3/1]G2G2>F2E4A2 [|] 
[V:3] [M:3/1]D2B,2C2C2>B,2A,2 [|] 
[V:4] [M:3/1]G,2G,2E,2A,4D,2 [|] 
[V:1] B4c2B2B2AG [|] 
[V:2] D4G2G2G2G2 [|] 
[V:3] B,2>A,2G,2B,2B,2C2 [|] 
[V:4] G,4C,2G,2G,2F,E, [|] 
[V:1] B6 [|] 
[V:2] ^F6 [|] 
[V:3] D6 [|] 
[V:4] D,6 [|] 
[V:1] [M:C|]d4e2Bc [I:setbarnb 8][|] 
[V:2] [M:C|]G4EFG4 [|] 
[V:3] [M:C|]B,4CB,A,G, [|] 
[V:4] [M:C|]G,4C,2E,2 [|] 
[V:1] d2>c2B32 |]  
[V:2] F2G32 |]  
[V:3] A,4G,32 |]  
[V:4] D,4G,32 |]  


